;FLAVOR:Marlin
;TIME:9388
;Filament used: 3.82581m
;Layer height: 0.1
;MINX:62.898
;MINY:86.15
;MINZ:0.15
;MAXX:157.091
;MAXY:130.85
;MAXZ:21.95
;TARGET_MACHINE.NAME:Geeetech A10
;Generated with Cura_SteamEngine 5.8.1
M140 S60
M105
M190 S60
M104 S200
M105
M109 S200
M82 ;absolute extrusion mode
G28 ; Auto home
G1 Z15 F300 ;Move up slightly
M107 ;Off fans
G90 ;Switch to absolute positioning
M82 ;Extruder absolute mode
G92 E0 ;Set position of extruder to 0
G0 X10 Y20 F1500 ;Move to X10 Y20 at 1500mms
G1 Z0.8 ;Move Z to 0.8
G1 F300 X180 E40 ;Extrude a line of filament
G1 F1200 Z2 ;Raise Z
G92 E0 ;Set extruder position to zero
G28 ;Auto home
G92 E0
G92 E0
G1 F2100 E-0.8
;LAYER_COUNT:219
;LAYER:0
M107
G0 F600 X65.649 Y90.661 Z0.15
;TYPE:SKIRT
G1 F2100 E0
G1 F1200 X66.182 Y90.285 E0.01627
G1 X66.688 Y89.99 E0.03088
G1 X67.264 Y89.717 E0.04678
G1 X67.823 Y89.51 E0.06165
G1 X68.403 Y89.35 E0.07666
G1 X69.014 Y89.238 E0.09216
G1 X69.781 Y89.165 E0.11138
G1 X70.73 Y89.15 E0.13505
G1 X94.215 Y89.15 E0.72089
G1 X97.001 Y89.11 E0.79039
G1 X99.718 Y88.995 E0.85823
G1 X102.451 Y88.801 E0.92657
G1 X105.135 Y88.535 E0.99385
G1 X107.859 Y88.187 E1.06236
G1 X110.548 Y87.764 E1.13026
G1 X113.208 Y87.27 E1.19775
G1 X115.875 Y86.697 E1.2658
G1 X117.291 Y86.357 E1.30212
G1 X117.902 Y86.232 E1.31768
G1 X118.526 Y86.161 E1.33334
G1 X119.038 Y86.15 E1.34612
G1 X120.341 Y86.163 E1.37862
G1 X121.232 Y86.252 E1.40096
G1 X122.294 Y86.523 E1.4283
G1 X123.407 Y86.822 E1.45705
G1 X126.078 Y87.458 E1.52554
G1 X128.781 Y88.022 E1.59442
G1 X131.44 Y88.5 E1.66181
G1 X134.151 Y88.907 E1.7302
G1 X136.395 Y89.185 E1.7866
G1 X137.225 Y89.278 E1.80744
G1 X137.958 Y89.439 E1.82616
G1 X138.873 Y89.776 E1.85048
G1 X139.404 Y90.039 E1.86526
G1 X139.862 Y90.314 E1.87859
G1 X140.621 Y90.866 E1.902
G1 X142.945 Y93.163 E1.98351
G1 X144.967 Y95.062 E2.0527
G1 X146.97 Y96.84 E2.11951
G1 X149.074 Y98.604 E2.18801
G1 X151.198 Y100.286 E2.25559
G1 X153.167 Y101.768 E2.31706
G1 X154.009 Y102.542 E2.34559
G1 X154.886 Y103.521 E2.37838
G1 X155.57 Y104.546 E2.40912
G1 X155.912 Y105.162 E2.4267
G1 X156.283 Y105.942 E2.44824
G1 X156.472 Y106.457 E2.46193
G1 X156.727 Y107.25 E2.48271
G1 X156.852 Y107.806 E2.49692
G1 X156.966 Y108.417 E2.51243
G1 X157.045 Y109.117 E2.53
G1 X157.091 Y110.015 E2.55243
G1 X157.058 Y110.729 E2.57026
G1 X156.988 Y111.399 E2.58706
G1 X156.845 Y112.205 E2.60748
G1 X156.659 Y113.005 E2.62797
G1 X156.299 Y114.021 E2.65486
G1 X155.985 Y114.695 E2.67341
G1 X155.625 Y115.367 E2.69242
G1 X155.122 Y116.156 E2.71576
G1 X154.789 Y116.584 E2.72929
G1 X154.136 Y117.33 E2.75402
G1 X153.66 Y117.793 E2.77059
G1 X152.917 Y118.425 E2.79492
G1 X151.806 Y119.261 E2.8296
G1 X149.657 Y120.933 E2.89752
G1 X147.56 Y122.661 E2.96531
G1 X145.499 Y124.46 E3.03355
G1 X143.5 Y126.306 E3.10142
G1 X141.824 Y127.96 E3.16016
G1 X141.718 Y128.05 E3.16363
G1 X140.597 Y129.155 E3.2029
G1 X139.869 Y129.682 E3.22532
G1 X139.356 Y129.988 E3.24022
G1 X138.732 Y130.289 E3.2575
G1 X137.948 Y130.586 E3.27841
G1 X137.056 Y130.734 E3.30097
G1 X135.109 Y130.849 E3.34962
G1 X70.649 Y130.85 E4.95758
G1 X69.739 Y130.829 E4.98029
G1 X69.116 Y130.777 E4.99588
G1 X68.517 Y130.675 E5.01104
G1 X67.897 Y130.514 E5.02702
G1 X67.329 Y130.311 E5.04206
G1 X66.746 Y130.042 E5.05808
G1 X66.259 Y129.765 E5.07206
G1 X65.7 Y129.378 E5.08902
G1 X65.25 Y129.004 E5.10361
G1 X64.797 Y128.556 E5.11951
G1 X64.409 Y128.099 E5.13446
G1 X64.033 Y127.566 E5.15073
G1 X63.738 Y127.06 E5.16534
G1 X63.465 Y126.484 E5.18124
G1 X63.271 Y125.964 E5.19509
G1 X63.094 Y125.326 E5.2116
G1 X62.989 Y124.764 E5.22586
G1 X62.901 Y123.832 E5.24922
G1 X62.898 Y96.9 E5.92104
G1 X62.918 Y96.011 E5.94322
G1 X62.968 Y95.391 E5.95874
G1 X63.069 Y94.788 E5.97399
G1 X63.222 Y94.19 E5.98939
G1 X63.436 Y93.585 E6.00539
G1 X63.704 Y93.002 E6.0214
G1 X63.981 Y92.515 E6.03538
G1 X64.369 Y91.954 E6.05239
G1 X64.744 Y91.502 E6.06704
G1 X65.192 Y91.049 E6.08293
G1 X65.649 Y90.661 E6.09789
G0 F600 X65.881 Y90.987
G1 F1200 X66.384 Y90.63 E6.11327
G1 X66.86 Y90.351 E6.12704
G1 X67.404 Y90.092 E6.14207
G1 X67.929 Y89.896 E6.15605
G1 X68.509 Y89.736 E6.17106
G1 X69.052 Y89.636 E6.18483
G1 X69.787 Y89.565 E6.20325
G1 X70.736 Y89.55 E6.22692
G1 X94.221 Y89.55 E6.81276
G1 X97.018 Y89.51 E6.88254
G1 X99.735 Y89.395 E6.95037
G1 X102.482 Y89.2 E7.01907
G1 X105.186 Y88.932 E7.08685
G1 X107.91 Y88.584 E7.15536
G1 X110.61 Y88.159 E7.22354
G1 X113.293 Y87.661 E7.29161
G1 X115.965 Y87.087 E7.35978
G1 X117.371 Y86.749 E7.39585
G1 X117.982 Y86.624 E7.41141
G1 X118.535 Y86.561 E7.4253
G1 X119.035 Y86.55 E7.43777
G1 X120.303 Y86.561 E7.4694
G1 X121.133 Y86.64 E7.4902
G1 X122.19 Y86.909 E7.51741
G1 X123.314 Y87.211 E7.54644
G1 X125.996 Y87.85 E7.61522
G1 X128.7 Y88.414 E7.68412
G1 X131.376 Y88.895 E7.75194
G1 X134.092 Y89.303 E7.82045
G1 X136.35 Y89.583 E7.87721
G1 X137.18 Y89.676 E7.89804
G1 X137.821 Y89.815 E7.91441
G1 X138.696 Y90.135 E7.93765
G1 X139.198 Y90.382 E7.9516
G1 X139.656 Y90.657 E7.96493
G1 X140.34 Y91.15 E7.98596
G1 X142.671 Y93.455 E8.06774
G1 X144.693 Y95.354 E8.13693
G1 X146.713 Y97.147 E8.20431
G1 X148.817 Y98.911 E8.2728
G1 X150.958 Y100.606 E8.34092
G1 X152.897 Y102.063 E8.40142
G1 X153.711 Y102.809 E8.42896
G1 X154.588 Y103.788 E8.46175
G1 X155.22 Y104.74 E8.49025
G1 X155.562 Y105.356 E8.50783
G1 X155.907 Y106.08 E8.52783
G1 X156.096 Y106.595 E8.54152
G1 X156.337 Y107.338 E8.561
G1 X156.459 Y107.879 E8.57484
G1 X156.573 Y108.49 E8.59034
G1 X156.646 Y109.138 E8.60661
G1 X156.691 Y109.997 E8.62807
G1 X156.66 Y110.687 E8.6453
G1 X156.59 Y111.357 E8.6621
G1 X156.455 Y112.116 E8.68133
G1 X156.282 Y112.871 E8.70065
G1 X155.922 Y113.887 E8.72754
G1 X155.632 Y114.506 E8.74459
G1 X155.272 Y115.178 E8.76361
G1 X154.806 Y115.91 E8.78526
G1 X154.473 Y116.338 E8.79878
G1 X153.857 Y117.043 E8.82214
G1 X153.381 Y117.506 E8.8387
G1 X152.676 Y118.105 E8.86178
G1 X151.565 Y118.941 E8.89646
G1 X149.411 Y120.617 E8.96454
G1 X147.306 Y122.352 E9.03259
G1 X145.236 Y124.159 E9.10113
G1 X143.219 Y126.021 E9.16961
G1 X141.543 Y127.675 E9.22835
G1 X141.443 Y127.759 E9.2316
G1 X140.362 Y128.831 E9.26958
G1 X139.663 Y129.339 E9.29114
G1 X139.181 Y129.628 E9.30516
G1 X138.59 Y129.915 E9.32154
G1 X137.845 Y130.197 E9.34142
G1 X136.99 Y130.339 E9.36304
G1 X135.109 Y130.449 E9.41004
G1 X70.658 Y130.45 E11.01777
G1 X69.772 Y130.43 E11.03988
G1 X69.149 Y130.378 E11.05548
G1 X68.617 Y130.288 E11.06894
G1 X68.031 Y130.137 E11.08403
G1 X67.496 Y129.947 E11.09819
G1 X66.944 Y129.694 E11.11334
G1 X66.457 Y129.417 E11.12732
G1 X65.955 Y129.07 E11.14254
G1 X65.531 Y128.719 E11.15627
G1 X65.101 Y128.296 E11.17132
G1 X64.735 Y127.867 E11.18538
G1 X64.378 Y127.364 E11.20077
G1 X64.099 Y126.888 E11.21453
G1 X63.84 Y126.344 E11.22956
G1 X63.646 Y125.824 E11.24341
G1 X63.487 Y125.251 E11.25824
G1 X63.387 Y124.726 E11.27157
G1 X63.301 Y123.832 E11.29398
G1 X63.298 Y96.909 E11.96557
G1 X63.317 Y96.043 E11.98718
G1 X63.367 Y95.423 E12.0027
G1 X63.457 Y94.887 E12.01625
G1 X63.61 Y94.289 E12.03165
G1 X63.8 Y93.751 E12.04588
G1 X64.052 Y93.2 E12.061
G1 X64.329 Y92.713 E12.07497
G1 X64.677 Y92.209 E12.09025
G1 X65.029 Y91.783 E12.10404
G1 X65.452 Y91.353 E12.11908
G1 X65.881 Y90.987 E12.13315
G1 F2100 E11.33315
G0 F600 X69.651 Y109.4
G1 F2100 E12.13315
G1 F1200 X69.82 Y109.332 E12.1377
G1 X69.998 Y109.308 E12.14218
G1 X70.176 Y109.332 E12.14666
G1 X70.342 Y109.399 E12.15112
G1 X70.49 Y109.513 E12.15578
G1 X70.595 Y109.652 E12.16013
G1 X70.667 Y109.821 E12.16471
G1 X70.691 Y110 E12.16921
G1 X70.667 Y110.179 E12.17372
G1 X70.595 Y110.348 E12.1783
G1 X70.49 Y110.487 E12.18265
G1 X70.342 Y110.601 E12.18731
G1 X70.176 Y110.668 E12.19177
G1 X69.998 Y110.692 E12.19625
G1 X69.82 Y110.668 E12.20073
G1 X69.651 Y110.6 E12.20528
G1 X69.506 Y110.487 E12.20986
G1 X69.399 Y110.348 E12.21424
G1 X69.328 Y110.177 E12.21886
G1 X69.305 Y110 E12.22331
G1 X69.328 Y109.823 E12.22776
G1 X69.399 Y109.652 E12.23238
G1 X69.506 Y109.513 E12.23676
G1 X69.651 Y109.4 E12.24134
G0 F600 X69.853 Y109.749
G1 F1200 X69.92 Y109.722 E12.24315
G1 X69.998 Y109.712 E12.24511
G1 X70.076 Y109.722 E12.24707
G1 X70.142 Y109.749 E12.24885
G1 X70.202 Y109.796 E12.25075
G1 X70.246 Y109.853 E12.25254
G1 X70.277 Y109.926 E12.25452
G1 X70.286 Y110 E12.25638
G1 X70.277 Y110.074 E12.25824
G1 X70.246 Y110.147 E12.26022
G1 X70.202 Y110.204 E12.26202
G1 X70.142 Y110.251 E12.26392
G1 X70.076 Y110.278 E12.2657
G1 X69.998 Y110.288 E12.26766
G1 X69.92 Y110.278 E12.26962
G1 X69.853 Y110.251 E12.27142
G1 X69.792 Y110.203 E12.27336
G1 X69.749 Y110.148 E12.2751
G1 X69.719 Y110.073 E12.27711
G1 X69.709 Y109.998 E12.279
G1 X69.719 Y109.927 E12.28079
G1 X69.749 Y109.852 E12.28281
G1 X69.792 Y109.797 E12.28455
G1 X69.853 Y109.749 E12.28648
G1 F2100 E11.48648
G0 F600 X116.536 Y95.822
G1 F2100 E12.28648
G1 F1200 X116.618 Y95.65 E12.29124
G1 X122.4 Y95.65 E12.43547
G1 X122.483 Y95.818 E12.44014
G1 X122.205 Y96.178 E12.45149
G1 X121.204 Y97.062 E12.4848
G1 X121.063 Y97.144 E12.48887
G1 X120.553 Y97.323 E12.50235
G1 X120.395 Y97.35 E12.50635
G1 X118.621 Y97.344 E12.55061
G1 X118.049 Y97.198 E12.56533
G1 X117.813 Y97.078 E12.57194
G1 X117.018 Y96.415 E12.59776
G1 X116.536 Y95.822 E12.61682
G0 F600 X117.237 Y96.05
G1 F1200 X121.746 Y96.05 E12.7293
G1 X120.968 Y96.736 E12.75517
G1 X120.893 Y96.78 E12.75734
G1 X120.458 Y96.933 E12.76885
G1 X120.359 Y96.95 E12.77135
G1 X118.67 Y96.944 E12.81348
G1 X118.195 Y96.823 E12.82571
G1 X118.033 Y96.74 E12.83025
G1 X117.306 Y96.135 E12.85384
G1 X117.237 Y96.05 E12.85658
G1 F2100 E12.05658
G0 F600 X118.353 Y96.45
G1 F2100 E12.85658
G1 F1200 X120.626 Y96.45 E12.91328
G1 X120.356 Y96.545 E12.92042
G1 X120.329 Y96.55 E12.9211
G1 X118.722 Y96.544 E12.96119
G1 X118.353 Y96.45 E12.97069
G1 F2100 E12.17069
G0 F600 X116.576 Y91.85
G1 F2100 E12.97069
G1 F1200 X116.494 Y91.682 E12.97535
G1 X117.082 Y90.925 E12.99926
G1 X117.086 Y90.919 E12.99944
G1 X117.372 Y90.525 E13.01159
G1 X117.776 Y90.2 E13.02452
G1 X118.039 Y90.08 E13.03173
G1 X118.637 Y89.95 E13.047
G1 X120.313 Y89.952 E13.0888
G1 X120.529 Y89.984 E13.09425
G1 X121.065 Y90.156 E13.10829
G1 X121.555 Y90.466 E13.12276
G1 X122.49 Y91.682 E13.16102
G1 X122.408 Y91.85 E13.16568
G1 X116.576 Y91.85 E13.31116
G0 F600 X117.18 Y91.45
G1 F1200 X117.398 Y91.17 E13.32002
G1 X117.41 Y91.154 E13.32051
G1 X117.666 Y90.802 E13.33137
G1 X117.986 Y90.544 E13.34163
G1 X118.166 Y90.462 E13.34656
G1 X118.68 Y90.35 E13.35968
G1 X120.287 Y90.352 E13.39977
G1 X120.434 Y90.374 E13.40348
G1 X120.894 Y90.521 E13.41552
G1 X121.281 Y90.766 E13.42695
G1 X121.807 Y91.45 E13.44847
G1 X117.18 Y91.45 E13.56389
G0 F600 X117.996 Y91.05
G1 F1200 X118.201 Y90.885 E13.57046
G1 X118.29 Y90.845 E13.57289
G1 X118.724 Y90.75 E13.58398
G1 X120.254 Y90.752 E13.62214
G1 X120.347 Y90.766 E13.62449
G1 X120.724 Y90.886 E13.63436
G1 X120.982 Y91.05 E13.64198
G1 X117.996 Y91.05 E13.71647
G1 F2100 E12.91647
;MESH:Phonerv2 v16.stl
G0 F600 X135.652 Y92.097
G0 X136.33 Y93.608
G0 X137.576 Y93.607
G0 X141.31 Y111.643
G0 X141.619 Y112.409
G0 X142.049 Y113.133
G0 X142.579 Y113.774
G0 X143.202 Y114.327
G0 X146.314 Y115.896
G0 X146.304 Y115.596
;TYPE:WALL-INNER
G1 F2100 E13.71647
G1 F600 X145.478 Y115.505 E13.7372
G1 X144.604 Y115.271 E13.75977
G1 X143.822 Y114.923 E13.78112
G1 X143.103 Y114.455 E13.80252
G1 X142.493 Y113.913 E13.82287
G1 X141.911 Y113.221 E13.84543
G1 X141.455 Y112.436 E13.86808
G1 X141.147 Y111.653 E13.88907
G1 X140.957 Y110.812 E13.91057
G1 X140.893 Y110.003 E13.93082
G1 X140.957 Y109.148 E13.9522
G1 X141.175 Y108.259 E13.97504
G1 X141.476 Y107.513 E13.9951
G1 X141.911 Y106.777 E14.01643
G1 X142.454 Y106.118 E14.03773
G1 X143.065 Y105.575 E14.05812
G1 X143.822 Y105.073 E14.08078
G1 X144.555 Y104.747 E14.10079
G1 X145.404 Y104.508 E14.12279
G1 X146.281 Y104.398 E14.14484
G1 X147.108 Y104.433 E14.16549
G1 X148.014 Y104.607 E14.1885
G1 X148.805 Y104.896 E14.20951
G1 X149.545 Y105.299 E14.23053
G1 X150.219 Y105.815 E14.2517
G1 X150.8 Y106.416 E14.27256
G1 X151.292 Y107.107 E14.29372
G1 X151.705 Y107.941 E14.31693
G1 X151.962 Y108.776 E14.33872
G1 X152.083 Y109.584 E14.3591
G1 X152.08 Y110.415 E14.37983
G1 X151.954 Y111.249 E14.40087
G1 X151.705 Y112.055 E14.42192
G1 X151.331 Y112.827 E14.44332
G1 X150.805 Y113.575 E14.46613
G1 X150.224 Y114.18 E14.48705
G1 X149.549 Y114.697 E14.50826
G1 X148.805 Y115.102 E14.52939
G1 X148.022 Y115.389 E14.55019
G1 X147.119 Y115.563 E14.57313
G1 X146.304 Y115.596 E14.59348
G0 X146.314 Y115.896
G0 X144.286 Y116.417
G0 X143.346 Y116.735
G0 X142.45 Y117.177
G0 X141.626 Y117.728
G0 X140.878 Y118.384
G0 X140.225 Y119.13
G0 X139.672 Y119.959
G0 X139.279 Y120.759
G0 X138.674 Y122.688
G0 X138.963 Y122.746
G1 X139.135 Y121.886 E14.61536
G1 X139.469 Y120.906 E14.64118
G1 X139.861 Y120.11 E14.66332
G1 X140.393 Y119.306 E14.68737
G1 X141.075 Y118.525 E14.71323
G1 X141.739 Y117.941 E14.73529
G1 X142.602 Y117.365 E14.76117
G1 X143.479 Y116.939 E14.78549
G1 X144.381 Y116.639 E14.80921
G1 X145.301 Y116.458 E14.8326
G1 X146.209 Y116.401 E14.85529
G1 X146.484 Y116.399 E14.86215
G1 X147.329 Y116.34 E14.88328
G1 X148.137 Y116.183 E14.90381
G1 X148.946 Y115.908 E14.92513
G1 X149.696 Y115.538 E14.94599
G1 X150.382 Y115.082 E14.96654
G1 X151.018 Y114.526 E14.98761
G1 X151.578 Y113.886 E15.00882
G1 X152.03 Y113.207 E15.02917
G1 X152.404 Y112.449 E15.05026
G1 X152.679 Y111.647 E15.07141
G1 X152.839 Y110.837 E15.092
G1 X152.894 Y109.992 E15.11312
G1 X152.84 Y109.159 E15.13395
G1 X152.679 Y108.348 E15.15457
G1 X152.405 Y107.547 E15.17569
G1 X152.035 Y106.797 E15.19655
G1 X151.578 Y106.11 E15.21713
G1 X151.019 Y105.47 E15.23833
G1 X150.382 Y104.914 E15.25942
G1 X149.696 Y104.457 E15.27999
G1 X148.953 Y104.092 E15.30064
G1 X148.136 Y103.813 E15.32217
G1 X147.338 Y103.657 E15.34245
G1 X146.467 Y103.601 E15.36423
G1 X146.213 Y103.6 E15.37056
G1 X145.303 Y103.538 E15.39331
G1 X144.308 Y103.337 E15.41864
G1 X143.402 Y103.027 E15.44252
G1 X142.606 Y102.635 E15.46466
G1 X141.802 Y102.103 E15.48871
G1 X141.025 Y101.421 E15.5145
G1 X140.441 Y100.757 E15.53655
G1 X139.904 Y99.961 E15.56051
G1 X139.439 Y99.021 E15.58667
G1 X139.159 Y98.193 E15.60847
G1 X138.96 Y97.236 E15.63285
G1 X138.896 Y96.29 E15.65651
G1 X138.85 Y95.758 E15.66983
G1 X138.724 Y95.27 E15.6824
G1 X138.517 Y94.819 E15.69478
G1 X138.231 Y94.407 E15.70729
G1 X137.89 Y94.056 E15.71949
G1 X137.592 Y93.84 E15.72868
G1 X137.592 Y126.157 E16.53483
G1 X137.887 Y125.943 E16.54392
G1 X138.227 Y125.596 E16.55604
G1 X138.516 Y125.178 E16.56871
G1 X138.721 Y124.729 E16.58103
G1 X138.85 Y124.239 E16.59366
G1 X138.897 Y123.699 E16.60719
G1 X138.963 Y122.746 E16.63102
G0 X139.355 Y122.824
;TYPE:WALL-OUTER
G1 X139.534 Y121.939 E16.65354
G1 X139.828 Y121.083 E16.67612
G1 X140.233 Y120.264 E16.69891
G1 X140.725 Y119.528 E16.72099
G1 X141.339 Y118.825 E16.74428
G1 X142.003 Y118.241 E16.76633
G1 X142.779 Y117.724 E16.78959
G1 X143.607 Y117.318 E16.8126
G1 X144.46 Y117.031 E16.83505
G1 X145.316 Y116.859 E16.85683
G1 X146.244 Y116.8 E16.88002
G1 X146.485 Y116.8 E16.88604
G1 X147.381 Y116.737 E16.90844
G1 X148.24 Y116.57 E16.93027
G1 X149.099 Y116.278 E16.9529
G1 X149.896 Y115.886 E16.97506
G1 X150.626 Y115.4 E16.99693
G1 X151.302 Y114.81 E17.01932
G1 X151.896 Y114.13 E17.04184
G1 X152.378 Y113.407 E17.06352
G1 X152.774 Y112.603 E17.08587
G1 X153.066 Y111.751 E17.10834
G1 X153.237 Y110.889 E17.13026
G1 X153.295 Y109.992 E17.15268
G1 X153.237 Y109.107 E17.17481
G1 X153.066 Y108.244 E17.19675
G1 X152.775 Y107.393 E17.21919
G1 X152.382 Y106.597 E17.24133
G1 X151.896 Y105.866 E17.26323
G1 X151.302 Y105.186 E17.28575
G1 X150.626 Y104.596 E17.30814
G1 X149.896 Y104.11 E17.33001
G1 X149.107 Y103.722 E17.35194
G1 X148.24 Y103.426 E17.3748
G1 X147.39 Y103.259 E17.39641
G1 X146.493 Y103.201 E17.41883
G1 X146.239 Y103.2 E17.42516
G1 X145.343 Y103.14 E17.44757
G1 X144.46 Y102.965 E17.47002
G1 X143.579 Y102.668 E17.49321
G1 X142.76 Y102.263 E17.516
G1 X142.024 Y101.771 E17.53809
G1 X141.325 Y101.157 E17.5613
G1 X140.741 Y100.493 E17.58335
G1 X140.224 Y99.717 E17.60661
G1 X139.818 Y98.893 E17.62953
G1 X139.538 Y98.065 E17.65133
G1 X139.354 Y97.167 E17.6742
G1 X139.295 Y96.256 E17.69697
