;FLAVOR:Marlin
;TIME:5866
;Filament used: 1.85217m
;Layer height: 0.1
;MINX:69.9
;MINY:89.15
;MINZ:0.15
;MAXX:150.1
;MAXY:130.85
;MAXZ:5.25
;TARGET_MACHINE.NAME:Geeetech A10
;Generated with Cura_SteamEngine 5.8.1
M140 S60
M105
M190 S60
M104 S200
M105
M109 S200
M82 ;absolute extrusion mode
G28 ; Auto home
G1 Z15 F300 ;Move up slightly
M107 ;Off fans
G90 ;Switch to absolute positioning
M82 ;Extruder absolute mode
G92 E0 ;Set position of extruder to 0
G0 X10 Y20 F1500 ;Move to X10 Y20 at 1500mms
G1 Z0.8 ;Move Z to 0.8
G1 F300 X180 E40 ;Extrude a line of filament
G1 F1200 Z2 ;Raise Z
G92 E0 ;Set extruder position to zero
G28 ;Auto home
G92 E0
G92 E0
G1 F2100 E-0.8
;LAYER_COUNT:52
;LAYER:0
M107
G0 F600 X72.651 Y90.658 Z0.15
;TYPE:SKIRT
G1 F2100 E0
G1 F1200 X73.106 Y90.334 E0.01393
G1 X73.663 Y90.002 E0.03011
G1 X74.158 Y89.759 E0.04386
G1 X75.13 Y89.414 E0.06959
G1 X75.687 Y89.284 E0.08386
G1 X76.265 Y89.199 E0.09843
G1 X77.135 Y89.154 E0.12017
G1 X142.301 Y89.15 E1.74574
G1 X143.264 Y89.169 E1.76976
G1 X144.176 Y89.25 E1.7926
G1 X144.926 Y89.431 E1.81185
G1 X145.463 Y89.607 E1.82595
G1 X146.25 Y89.939 E1.84725
G1 X147.163 Y90.501 E1.874
G1 X147.989 Y91.198 E1.90096
G1 X148.731 Y92.061 E1.92935
G1 X149.197 Y92.814 E1.95144
G1 X149.441 Y93.297 E1.96494
G1 X149.762 Y94.089 E1.98625
G1 X150.018 Y95.178 E2.01416
G1 X150.09 Y96.175 E2.0391
G1 X150.1 Y96.755 E2.05357
G1 X150.099 Y123.103 E2.71082
G1 X150.081 Y124.012 E2.7335
G1 X150.004 Y124.903 E2.75581
G1 X149.813 Y125.696 E2.77615
G1 X149.657 Y126.178 E2.78879
G1 X149.313 Y126.997 E2.81095
G1 X148.78 Y127.869 E2.83645
G1 X147.997 Y128.793 E2.86666
G1 X147.144 Y129.513 E2.8945
G1 X146.431 Y129.948 E2.91534
G1 X145.954 Y130.191 E2.92869
G1 X145.423 Y130.409 E2.94301
G1 X144.947 Y130.563 E2.95549
G1 X144.293 Y130.719 E2.97226
G1 X143.684 Y130.806 E2.98761
G1 X142.847 Y130.846 E3.00851
G1 X77.688 Y130.85 E4.63391
G1 X76.732 Y130.831 E4.65776
G1 X75.855 Y130.757 E4.67971
G1 X74.82 Y130.505 E4.70629
G1 X74.032 Y130.183 E4.72752
G1 X73.55 Y129.94 E4.74099
G1 X72.903 Y129.547 E4.75987
G1 X72.007 Y128.794 E4.78907
G1 X71.258 Y127.928 E4.81763
G1 X70.671 Y126.967 E4.84572
G1 X70.356 Y126.212 E4.86612
G1 X70.189 Y125.7 E4.87956
G1 X70.051 Y125.127 E4.89426
G1 X69.966 Y124.59 E4.90782
G1 X69.909 Y123.785 E4.92795
G1 X69.9 Y123.187 E4.94287
G1 X69.901 Y96.889 E5.59888
G1 X69.92 Y95.899 E5.62358
G1 X70.004 Y95.045 E5.64499
G1 X70.213 Y94.219 E5.66624
G1 X70.568 Y93.271 E5.69149
G1 X70.823 Y92.775 E5.7054
G1 X71.285 Y92.039 E5.72708
G1 X71.817 Y91.418 E5.74748
G1 X72.203 Y91.036 E5.76103
G1 X72.651 Y90.658 E5.77565
G0 F600 X72.884 Y90.983
G1 F1200 X73.311 Y90.677 E5.78875
G1 X73.841 Y90.36 E5.80416
G1 X74.293 Y90.136 E5.81674
G1 X75.221 Y89.804 E5.84133
G1 X75.778 Y89.674 E5.85559
G1 X76.322 Y89.595 E5.86931
G1 X77.135 Y89.554 E5.88961
G1 X142.293 Y89.55 E7.51499
G1 X143.231 Y89.568 E7.53839
G1 X144.082 Y89.639 E7.55969
G1 X144.832 Y89.82 E7.57894
G1 X145.309 Y89.976 E7.59146
G1 X146.042 Y90.281 E7.61126
G1 X146.905 Y90.807 E7.63647
G1 X147.731 Y91.504 E7.66343
G1 X148.426 Y92.32 E7.69017
G1 X148.84 Y92.995 E7.70992
G1 X149.071 Y93.45 E7.72265
G1 X149.373 Y94.182 E7.7424
G1 X149.619 Y95.207 E7.7687
G1 X149.69 Y96.182 E7.79308
G1 X149.7 Y96.755 E7.80738
G1 X149.699 Y123.095 E8.46443
G1 X149.682 Y123.98 E8.48651
G1 X149.615 Y124.81 E8.50729
G1 X149.432 Y125.573 E8.52686
G1 X149.276 Y126.055 E8.5395
G1 X148.972 Y126.788 E8.55929
G1 X148.439 Y127.66 E8.58479
G1 X147.738 Y128.488 E8.61185
G1 X146.935 Y129.172 E8.63816
G1 X146.249 Y129.592 E8.65823
G1 X145.801 Y129.821 E8.67078
G1 X145.3 Y130.028 E8.6843
G1 X144.824 Y130.182 E8.69678
G1 X144.236 Y130.323 E8.71186
G1 X143.664 Y130.406 E8.72628
G1 X142.847 Y130.446 E8.74668
G1 X77.696 Y130.45 E10.37188
G1 X76.763 Y130.432 E10.39516
G1 X75.948 Y130.368 E10.41555
G1 X74.971 Y130.135 E10.44061
G1 X74.212 Y129.826 E10.46105
G1 X73.758 Y129.598 E10.47372
G1 X73.111 Y129.205 E10.49261
G1 X72.308 Y128.531 E10.51876
G1 X71.598 Y127.718 E10.54568
G1 X71.04 Y126.813 E10.57221
G1 X70.736 Y126.087 E10.59184
G1 X70.578 Y125.606 E10.60447
G1 X70.446 Y125.063 E10.61841
G1 X70.365 Y124.561 E10.63109
G1 X70.309 Y123.779 E10.65065
G1 X70.3 Y123.187 E10.66542
G1 X70.301 Y96.897 E11.32123
G1 X70.32 Y95.907 E11.34593
G1 X70.392 Y95.142 E11.36509
G1 X70.588 Y94.358 E11.38525
G1 X70.924 Y93.453 E11.40933
G1 X71.163 Y92.986 E11.42242
G1 X71.589 Y92.299 E11.44258
G1 X72.099 Y91.702 E11.46217
G1 X72.462 Y91.341 E11.47494
G1 X72.884 Y90.983 E11.48875
G1 F2100 E10.68875
;MESH:PhonerBot v4.stl
G0 F600 X76.97 Y92.089
G0 X77.05 Y93.169
G0 X143.161 Y114.321
G0 X143.172 Y114.022
;TYPE:WALL-INNER
G1 F2100 E11.48875
G1 F600 X142.495 Y113.994 E11.50565
G1 X141.826 Y113.853 E11.5227
G1 X141.183 Y113.592 E11.54001
G1 X140.616 Y113.24 E11.55666
G1 X140.094 Y112.788 E11.57389
G1 X139.666 Y112.252 E11.591
G1 X139.338 Y111.674 E11.60757
G1 X139.107 Y111.036 E11.6245
G1 X138.988 Y110.324 E11.64251
G1 X138.988 Y109.675 E11.6587
G1 X139.098 Y109.011 E11.67549
G1 X139.332 Y108.337 E11.69328
G1 X139.666 Y107.744 E11.71026
G1 X140.081 Y107.223 E11.72688
G1 X140.598 Y106.765 E11.74411
G1 X141.194 Y106.403 E11.7615
G1 X141.805 Y106.153 E11.77797
G1 X142.481 Y106.002 E11.79525
G1 X143.177 Y105.974 E11.81262
G1 X143.832 Y106.058 E11.8291
G1 X144.496 Y106.261 E11.84642
G1 X145.067 Y106.547 E11.86235
G1 X145.609 Y106.936 E11.87899
G1 X145.9 Y107.227 E11.88925
G1 X145.9 Y96.269 E12.1626
G1 X145.861 Y95.792 E12.17454
G1 X145.756 Y95.36 E12.18563
G1 X145.575 Y94.926 E12.19736
G1 X145.341 Y94.542 E12.20858
G1 X145.046 Y94.198 E12.21988
G1 X144.704 Y93.906 E12.2311
G1 X144.321 Y93.669 E12.24234
G1 X143.894 Y93.493 E12.25386
G1 X143.452 Y93.387 E12.2652
G1 X142.991 Y93.348 E12.27674
G1 X77.059 Y93.348 E13.92142
G1 X76.549 Y93.387 E13.93418
G1 X76.112 Y93.49 E13.94538
G1 X75.68 Y93.666 E13.95701
G1 X75.3 Y93.898 E13.96812
G1 X74.954 Y94.198 E13.97954
G1 X74.658 Y94.54 E13.99082
G1 X74.42 Y94.927 E14.00216
G1 X74.241 Y95.358 E14.0138
G1 X74.139 Y95.786 E14.02477
G1 X74.1 Y96.276 E14.03704
G1 X74.101 Y123.727 E14.7218
G1 X74.139 Y124.206 E14.73379
G1 X74.241 Y124.642 E14.74496
G1 X74.421 Y125.071 E14.75657
G1 X74.655 Y125.457 E14.76783
G1 X74.952 Y125.8 E14.77914
G1 X75.302 Y126.097 E14.79059
G1 X75.681 Y126.331 E14.80171
G1 X76.113 Y126.507 E14.81334
G1 X76.535 Y126.609 E14.82417
G1 X77.024 Y126.647 E14.83641
G1 X142.972 Y126.648 E16.48149
G1 X143.453 Y126.609 E16.49352
G1 X143.894 Y126.503 E16.50484
G1 X144.321 Y126.328 E16.51635
G1 X144.704 Y126.09 E16.5276
G1 X145.046 Y125.798 E16.53882
G1 X145.345 Y125.449 E16.55028
G1 X145.579 Y125.067 E16.56145
G1 X145.755 Y124.638 E16.57302
G1 X145.861 Y124.202 E16.58421
G1 X145.896 Y123.741 E16.59575
G1 X145.896 Y112.775 E16.86929
G1 X145.62 Y113.051 E16.87903
G1 X145.116 Y113.423 E16.89466
G1 X144.506 Y113.732 E16.91172
G1 X143.862 Y113.932 E16.92854
G1 X143.172 Y114.022 E16.94589
G0 X143.174 Y113.619
;TYPE:WALL-OUTER
G1 X142.53 Y113.592 E16.96197
G1 X141.924 Y113.462 E16.97743
G1 X141.369 Y113.235 E16.99239
G1 X140.853 Y112.918 E17.0075
G1 X140.383 Y112.511 E17.02301
G1 X140.007 Y112.041 E17.03802
G1 X139.695 Y111.492 E17.05377
G1 X139.488 Y110.913 E17.06911
G1 X139.388 Y110.303 E17.08453
G1 X139.39 Y109.674 E17.10022
G1 X139.488 Y109.099 E17.11477
G1 X139.697 Y108.501 E17.13057
G1 X140.007 Y107.954 E17.14626
G1 X140.363 Y107.51 E17.16045
G1 X140.836 Y107.087 E17.17628
G1 X141.388 Y106.754 E17.19236
G1 X141.944 Y106.532 E17.2073
G1 X142.516 Y106.404 E17.22192
G1 X143.174 Y106.377 E17.23835
G1 X143.767 Y106.456 E17.25327
G1 X144.331 Y106.628 E17.26798
G1 X144.887 Y106.905 E17.28348
G1 X145.371 Y107.258 E17.29842
G1 X145.827 Y107.732 E17.31483
G1 X146.171 Y108.248 E17.3303
G1 X146.3 Y108.534 E17.33812
G1 X146.3 Y96.253 E17.64447
G1 X146.257 Y95.728 E17.65761
G1 X146.137 Y95.235 E17.67027
G1 X145.933 Y94.744 E17.68353
G1 X145.665 Y94.306 E17.69634
G1 X145.33 Y93.914 E17.70921
G1 X144.941 Y93.582 E17.72196
G1 X144.504 Y93.311 E17.73479
G1 X144.018 Y93.111 E17.7479
G1 X143.516 Y92.991 E17.76077
G1 X143.007 Y92.948 E17.77352
G1 X77.044 Y92.948 E19.41897
G1 X76.487 Y92.991 E19.43291
G1 X75.99 Y93.108 E19.44564
G1 X75.499 Y93.308 E19.45887
G1 X75.063 Y93.574 E19.47161
G1 X74.67 Y93.914 E19.48457
G1 X74.334 Y94.303 E19.49739
G1 X74.063 Y94.744 E19.51031
G1 X73.859 Y95.234 E19.52355
G1 X73.743 Y95.724 E19.53611
G1 X73.7 Y96.26 E19.54952
G1 X73.701 Y123.743 E20.23509
G1 X73.743 Y124.268 E20.24822
G1 X73.859 Y124.766 E20.26098
G1 X74.063 Y125.253 E20.27415
G1 X74.331 Y125.693 E20.287
G1 X74.67 Y126.085 E20.29993
G1 X75.066 Y126.421 E20.31288
G1 X75.499 Y126.689 E20.32559
G1 X75.99 Y126.889 E20.33881
G1 X76.472 Y127.005 E20.35118
G1 X77.008 Y127.047 E20.36459
G1 X142.988 Y127.048 E22.01047
G1 X143.516 Y127.005 E22.02368
G1 X144.018 Y126.885 E22.03656
G1 X144.504 Y126.685 E22.04967
G1 X144.941 Y126.414 E22.0625
G1 X145.33 Y126.082 E22.07525
G1 X145.669 Y125.685 E22.08828
G1 X145.937 Y125.249 E22.10104
G1 X146.137 Y124.762 E22.11417
G1 X146.257 Y124.264 E22.12695
G1 X146.296 Y123.756 E22.13966
G1 X146.296 Y111.478 E22.44594
G1 X146.154 Y111.78 E22.45426
G1 X145.835 Y112.256 E22.46856
G1 X145.383 Y112.729 E22.48488
G1 X144.887 Y113.091 E22.50019
G1 X144.344 Y113.364 E22.51535
G1 X143.788 Y113.536 E22.52987
G1 X143.174 Y113.619 E22.54533
G0 X142.975 Y113.611
G1 F2100 E21.74533
G0 F600 X142.948 Y114.312
G0 X145.027 Y113.291
G0 X145.998 Y112.407
G0 X146.435 Y110.587
G1 F2100 E22.54533
G1 F705.9 X146.436 Y110.582 E22.54544
G1 X146.446 Y110.336 E22.55066
G0 F600 X146.436 Y110.582
G1 F705.9 X146.435 Y110.587 E22.55077
G0 F600 X146.449 Y109.724
G1 F705.9 X146.436 Y109.406 E22.55751
G1 F2100 E21.75751
G0 F600 X145.717 Y109.525
G0 X144.444 Y112.348
G0 X145.017 Y113.274
G0 X143.21 Y114.399
;TYPE:SKIN
G1 F2100 E22.55751
G1 F600 X143.922 Y114.307 E22.57542
G1 X144.631 Y114.092 E22.5939
G1 X145.3 Y113.755 E22.61259
G1 X145.516 Y113.598 E22.61925
G1 X145.516 Y123.719 E22.87172
G1 X145.481 Y124.132 E22.88206
G1 X145.388 Y124.519 E22.89199
G1 X145.236 Y124.897 E22.90215
G1 X145.034 Y125.225 E22.91176
G1 X144.774 Y125.526 E22.92168
G1 X144.481 Y125.778 E22.93132
G1 X144.148 Y125.985 E22.9411
G1 X143.774 Y126.137 E22.95117
G1 X143.387 Y126.229 E22.9611
G1 X142.951 Y126.268 E22.97202
G1 X77.04 Y126.264 E24.61617
G1 X76.596 Y126.229 E24.62728
G1 X76.23 Y126.141 E24.63667
G1 X75.851 Y125.988 E24.64687
G1 X75.519 Y125.782 E24.65661
G1 X75.218 Y125.525 E24.66649
G1 X74.959 Y125.225 E24.67637
G1 X74.763 Y124.904 E24.68576
G1 X74.6 Y124.518 E24.69621
G1 X74.515 Y124.145 E24.70575
G1 X74.481 Y123.716 E24.71649
G1 X74.48 Y96.296 E25.40048
G1 X74.515 Y95.844 E25.41179
G1 X74.603 Y95.475 E25.42125
G1 X74.763 Y95.092 E25.43161
G1 X74.966 Y94.759 E25.44134
G1 X75.222 Y94.467 E25.45102
G1 X75.527 Y94.202 E25.4611
G1 X75.843 Y94.008 E25.47035
G1 X76.229 Y93.852 E25.48074
G1 X76.607 Y93.763 E25.49042
G1 X77.076 Y93.728 E25.50216
G1 X142.967 Y93.728 E27.14581
G1 X143.388 Y93.763 E27.15635
G1 X143.774 Y93.855 E27.16625
G1 X144.148 Y94.007 E27.17632
G1 X144.481 Y94.214 E27.1861
G1 X144.774 Y94.466 E27.19574
G1 X145.025 Y94.759 E27.20537
G1 X145.229 Y95.092 E27.21511
G1 X145.389 Y95.476 E27.22548
G1 X145.486 Y95.861 E27.23539
G1 X145.52 Y96.281 E27.2459
G1 X145.52 Y106.396 E27.49822
G1 X145.32 Y106.247 E27.50444
G1 X144.619 Y105.896 E27.524
G1 X143.935 Y105.688 E27.54183
G1 X143.206 Y105.593 E27.56017
G1 X142.416 Y105.624 E27.57989
G1 X141.704 Y105.784 E27.59809
G1 X141.031 Y106.059 E27.61623
G1 X140.384 Y106.448 E27.63506
G1 X139.806 Y106.958 E27.65429
G1 X139.359 Y107.519 E27.67218
G1 X138.985 Y108.173 E27.69098
G1 X138.724 Y108.928 E27.7109
G1 X138.614 Y109.591 E27.72767
G1 X138.612 Y110.383 E27.74743
G1 X138.734 Y111.118 E27.76601
G1 X138.994 Y111.836 E27.78506
G1 X139.345 Y112.464 E27.80301
G1 X139.807 Y113.042 E27.82146
G1 X140.369 Y113.532 E27.84006
G1 X141.003 Y113.923 E27.85864
G1 X141.691 Y114.209 E27.87723
G1 X142.435 Y114.368 E27.89621
G1 X143.21 Y114.399 E27.91556
G0 X141.758 Y114.083
G0 X140.475 Y113.439
G0 X139.466 Y112.391
G0 X138.872 Y111.084
G0 X138.75 Y109.637
G0 X139.005 Y108.543
G0 X145.112 Y95.332
G1 X143.904 Y94.124 E27.95817
G0 X143.159 Y93.945
G1 X145.304 Y96.089 E28.03383
G0 X145.32 Y96.671
G1 X142.577 Y93.928 E28.13059
G0 X142.011 Y93.928
G1 X145.32 Y97.236 E28.24731
G0 X145.32 Y97.802
G1 X141.445 Y93.928 E28.38399
G0 X140.88 Y93.928
G1 X145.32 Y98.368 E28.54062
G0 X145.32 Y98.933
G1 X140.314 Y93.928 E28.71721
G0 X139.748 Y93.928
G1 X145.32 Y99.499 E28.91376
G0 X145.32 Y100.065
G1 X139.183 Y93.928 E29.13026
G0 X138.617 Y93.928
G1 X145.32 Y100.63 E29.36671
G0 X145.32 Y101.196
G1 X138.051 Y93.928 E29.62312
G0 X137.486 Y93.928
G1 X145.32 Y101.762 E29.89949
G0 X145.32 Y102.328
G1 X136.92 Y93.928 E30.19582
G0 X136.354 Y93.928
G1 X145.32 Y102.893 E30.5121
G0 X145.32 Y103.459
G1 X135.789 Y93.928 E30.84833
G0 X135.223 Y93.928
G1 X145.32 Y104.025 E31.20453
G0 X145.32 Y104.59
G1 X134.657 Y93.928 E31.58068
G0 X134.091 Y93.928
G1 X145.32 Y105.156 E31.9768
G0 X145.32 Y105.722
G1 X133.526 Y93.928 E32.39286
G0 X132.96 Y93.928
G1 X144.796 Y105.763 E32.81039
G1 X144.866 Y105.833
G0 X143.957 Y105.49
G1 X132.394 Y93.928 E33.21829
G0 X131.829 Y93.928
G1 X143.31 Y105.409 E33.62331
G0 X142.746 Y105.411
G1 X131.263 Y93.928 E34.02841
G0 X130.697 Y93.928
G1 X142.23 Y105.461 E34.43526
G0 X141.768 Y105.564
G1 X130.132 Y93.928 E34.84576
G0 X129.566 Y93.928
G1 X141.351 Y105.713 E35.2615
G0 X140.949 Y105.877
G1 X129 Y93.928 E35.68304
G0 X128.435 Y93.928
G1 X140.595 Y106.088 E36.11201
G0 X140.247 Y106.306
G1 X127.869 Y93.928 E36.54868
G0 X127.303 Y93.928
G1 X139.945 Y106.569 E36.99464
G0 X139.651 Y106.841
G1 X126.738 Y93.928 E37.45018
G0 X126.172 Y93.928
G1 X139.398 Y107.154 E37.91677
G0 X139.155 Y107.477
G1 X125.606 Y93.928 E38.39474
G0 X125.041 Y93.928
G1 X138.949 Y107.837 E38.8854
G0 X138.761 Y108.214
G1 X124.475 Y93.928 E39.38938
G0 X123.909 Y93.928
G1 X138.615 Y108.634 E39.90818
G0 X138.498 Y109.083
G1 X123.343 Y93.928 E40.44281
G0 X122.778 Y93.928
G1 X138.418 Y109.568 E40.99455
G0 X138.412 Y110.128
G1 X122.212 Y93.928 E41.56605
G0 X121.646 Y93.928
G1 X138.471 Y110.753 E42.1596
G0 X138.662 Y111.509
G1 X121.081 Y93.928 E42.77982
G0 X120.515 Y93.928
G1 X139.248 Y112.661 E43.44067
G1 X139.318 Y112.731
G0 X140.338 Y113.751
G1 X145.316 Y118.729 E43.61629
G0 X145.316 Y119.295
G1 X119.949 Y93.928 E44.51117
G0 X119.384 Y93.928
G1 X145.316 Y119.86 E45.426
G0 X145.316 Y120.426
G1 X118.818 Y93.928 E46.36078
G0 X118.252 Y93.928
G1 X145.316 Y120.992 E47.31554
G0 X145.316 Y121.557
G1 X117.687 Y93.928 E48.29023
G0 X117.121 Y93.928
G1 X145.316 Y122.123 E49.28488
G0 X145.316 Y122.689
G1 X116.555 Y93.928 E50.2995
G0 X115.99 Y93.928
G1 X145.316 Y123.254 E51.33406
G0 X145.308 Y123.812
G1 X115.424 Y93.928 E52.3883
G0 X114.858 Y93.928
G1 X145.235 Y124.304 E53.45991
G0 X145.09 Y124.725
G1 X114.292 Y93.928 E54.54638
G0 X113.727 Y93.928
G1 X144.885 Y125.086 E55.64556
G0 X144.624 Y125.391
G1 X113.161 Y93.928 E56.7555
G0 X112.595 Y93.928
G1 X144.313 Y125.646 E57.87444
G0 X143.951 Y125.849
G1 X112.03 Y93.928 E59.00054
G0 X111.464 Y93.928
G1 X143.526 Y125.99 E60.13161
G0 X143.03 Y126.059
G1 X110.898 Y93.928 E61.26514
G0 X110.333 Y93.928
G1 X142.472 Y126.067 E62.39893
G0 X141.906 Y126.067
G1 X109.767 Y93.928 E63.53272
G0 X109.201 Y93.928
G1 X141.341 Y126.067 E64.66652
G0 X140.775 Y126.067
G1 X108.636 Y93.928 E65.80031
G0 X108.07 Y93.928
G1 X140.209 Y126.067 E66.9341
G0 X139.644 Y126.067
G1 X107.504 Y93.928 E68.06791
G0 X106.939 Y93.928
G1 X139.078 Y126.067 E69.2017
G0 X138.512 Y126.067
G1 X106.373 Y93.928 E70.33549
G0 X105.807 Y93.928
G1 X137.947 Y126.067 E71.4693
G0 X137.381 Y126.067
G1 X105.242 Y93.928 E72.60309
G0 X104.676 Y93.928
G1 X136.815 Y126.067 E73.73688
G0 X136.25 Y126.067
G1 X104.11 Y93.928 E74.87069
G0 X103.544 Y93.928
G1 X135.684 Y126.067 E76.0045
G0 X135.118 Y126.067
G1 X102.979 Y93.928 E77.13829
G0 X102.413 Y93.928
G1 X134.553 Y126.067 E78.27209
G0 X133.987 Y126.067
G1 X101.847 Y93.928 E79.4059
G0 X101.282 Y93.928
G1 X133.421 Y126.067 E80.53969
G0 X132.855 Y126.067
G1 X100.716 Y93.928 E81.67348
