;FLAVOR:Marlin
;TIME:5951
;Filament used: 1.98642m
;Layer height: 0.1
;MINX:70.9
;MINY:91.15
;MINZ:0.15
;MAXX:150.698
;MAXY:128.85
;MAXZ:7.45
;TARGET_MACHINE.NAME:Geeetech A10
;Generated with Cura_SteamEngine 5.8.1
M140 S60
M105
M190 S60
M104 S200
M105
M109 S200
M82 ;absolute extrusion mode
G28 ; Auto home
G1 Z15 F300 ;Move up slightly
M107 ;Off fans
G90 ;Switch to absolute positioning
M82 ;Extruder absolute mode
G92 E0 ;Set position of extruder to 0
G0 X10 Y20 F1500 ;Move to X10 Y20 at 1500mms
G1 Z0.8 ;Move Z to 0.8
G1 F300 X180 E40 ;Extrude a line of filament
G1 F1200 Z2 ;Raise Z
G92 E0 ;Set extruder position to zero
G28 ;Auto home
G92 E0
G92 E0
G1 F2100 E-0.8
;LAYER_COUNT:74
;LAYER:0
M107
G0 F600 X72.478 Y91.788 Z0.15
;TYPE:SKIRT
G1 F2100 E0
G1 F1200 X72.035 Y92.145 E0.01419
G1 X71.655 Y92.567 E0.02836
G1 X71.345 Y93.045 E0.04257
G1 X71.115 Y93.564 E0.05673
G1 X70.969 Y94.112 E0.07088
G1 X70.909 Y94.711 E0.08589
G1 X70.9 Y95.376 E0.10248
G1 X70.903 Y98.563 E0.18198
G1 X70.913 Y99.024 E0.19349
G1 X70.913 Y101.8 E0.26273
G1 X70.9 Y102.681 E0.28471
G1 X70.9 Y117.743 E0.66044
G1 X70.913 Y118.574 E0.68117
G1 X70.913 Y121.301 E0.74919
G1 X70.9 Y122.201 E0.77165
G1 X70.902 Y125.251 E0.84773
G1 X70.939 Y125.703 E0.85904
G1 X71.054 Y126.249 E0.87296
G1 X71.256 Y126.781 E0.88716
G1 X71.539 Y127.273 E0.90131
G1 X71.896 Y127.716 E0.91551
G1 X72.319 Y128.097 E0.92971
G1 X72.795 Y128.405 E0.94385
G1 X73.315 Y128.636 E0.95804
G1 X73.865 Y128.782 E0.97224
G1 X74.463 Y128.841 E0.98723
G1 X75.161 Y128.85 E1.00464
G1 X143.471 Y128.85 E2.70864
G1 X144.135 Y128.782 E2.72529
G1 X144.625 Y128.657 E2.73791
G1 X145.149 Y128.435 E2.7521
G1 X145.631 Y128.135 E2.76627
G1 X146.061 Y127.762 E2.78046
G1 X146.426 Y127.326 E2.79465
G1 X146.718 Y126.837 E2.80886
G1 X147.252 Y125.738 E2.83934
G1 X148.479 Y123.327 E2.90682
G1 X150.148 Y120.272 E2.99366
G1 X150.339 Y119.855 E3.0051
G1 X150.591 Y119.039 E3.0264
G1 X150.688 Y118.087 E3.05027
G1 X150.67 Y116.734 E3.08403
G1 X150.527 Y114.045 E3.1512
G1 X150.452 Y111.289 E3.21997
G1 X150.454 Y108.581 E3.28752
G1 X150.535 Y105.821 E3.3564
G1 X150.698 Y102.924 E3.42878
G1 X150.672 Y101.614 E3.46147
G1 X150.596 Y100.957 E3.47797
G1 X150.435 Y100.404 E3.49233
G1 X150.096 Y99.614 E3.51378
G1 X148.357 Y96.433 E3.60421
G1 X147.119 Y93.981 E3.67273
G1 X146.73 Y93.183 E3.69488
G1 X146.466 Y92.731 E3.70793
G1 X146.111 Y92.289 E3.72208
G1 X145.638 Y91.87 E3.73784
G1 X145.156 Y91.568 E3.75203
G1 X144.693 Y91.366 E3.76463
G1 X144.143 Y91.22 E3.77882
G1 X143.546 Y91.16 E3.79379
G1 X142.845 Y91.15 E3.81128
G1 X74.494 Y91.152 E5.5163
G1 X74.049 Y91.189 E5.52744
G1 X73.442 Y91.321 E5.54293
G1 X72.971 Y91.505 E5.55555
G1 X72.478 Y91.788 E5.56973
G0 F600 X72.68 Y92.133
G1 F1200 X72.289 Y92.454 E5.58235
G1 X71.954 Y92.832 E5.59495
G1 X71.683 Y93.259 E5.60756
G1 X71.482 Y93.723 E5.62018
G1 X71.356 Y94.212 E5.63277
G1 X71.309 Y94.716 E5.6454
G1 X71.3 Y95.381 E5.66199
G1 X71.303 Y98.563 E5.74137
G1 X71.313 Y99.024 E5.75287
G1 X71.313 Y101.806 E5.82227
G1 X71.3 Y102.687 E5.84424
G1 X71.3 Y117.737 E6.21967
G1 X71.313 Y118.574 E6.24055
G1 X71.313 Y121.307 E6.30872
G1 X71.3 Y122.207 E6.33118
G1 X71.301 Y125.218 E6.40629
G1 X71.338 Y125.67 E6.4176
G1 X71.445 Y126.164 E6.43021
G1 X71.629 Y126.635 E6.44282
G1 X71.884 Y127.071 E6.45542
G1 X72.205 Y127.462 E6.46804
G1 X72.584 Y127.797 E6.48066
G1 X73.01 Y128.068 E6.49325
G1 X73.474 Y128.269 E6.50587
G1 X73.964 Y128.394 E6.51848
G1 X74.468 Y128.441 E6.53111
G1 X75.166 Y128.45 E6.54852
G1 X143.471 Y128.45 E8.2524
G1 X144.036 Y128.394 E8.26656
G1 X144.526 Y128.269 E8.27918
G1 X144.99 Y128.068 E8.29179
G1 X145.417 Y127.797 E8.30441
G1 X145.796 Y127.462 E8.31702
G1 X146.117 Y127.072 E8.32962
G1 X146.373 Y126.635 E8.34226
G1 X146.892 Y125.564 E8.37195
G1 X148.128 Y123.135 E8.43993
G1 X149.797 Y120.08 E8.52677
G1 X149.975 Y119.689 E8.53749
G1 X150.197 Y118.959 E8.55652
G1 X150.29 Y118.046 E8.57941
G1 X150.27 Y116.74 E8.61199
G1 X150.127 Y114.056 E8.67904
G1 X150.052 Y111.289 E8.74809
G1 X150.054 Y108.569 E8.81594
G1 X150.135 Y105.809 E8.88482
G1 X150.298 Y102.932 E8.9567
G1 X150.272 Y101.622 E8.98938
G1 X150.199 Y101.004 E9.00491
G1 X150.052 Y100.52 E9.01753
G1 X149.745 Y99.806 E9.03691
G1 X148.006 Y96.625 E9.12735
G1 X146.759 Y94.156 E9.19635
G1 X146.37 Y93.358 E9.21849
G1 X146.121 Y92.933 E9.23078
G1 X145.801 Y92.542 E9.24338
G1 X145.423 Y92.207 E9.25598
G1 X144.996 Y91.935 E9.26861
G1 X144.533 Y91.733 E9.28121
G1 X144.043 Y91.607 E9.29383
G1 X143.54 Y91.56 E9.30643
G1 X142.839 Y91.55 E9.32392
G1 X74.527 Y91.551 E11.02797
G1 X74.082 Y91.588 E11.03911
G1 X73.588 Y91.694 E11.05172
G1 X73.117 Y91.878 E11.06433
G1 X72.68 Y92.133 E11.07695
G1 F2100 E10.27695
G0 F600 X102.316 Y103.34
G1 F2100 E11.07695
G1 F1200 X103.037 Y102.681 E11.10132
G1 X103.764 Y102.143 E11.12388
G1 X104.536 Y101.678 E11.14636
G1 X105.385 Y101.283 E11.16972
G1 X106.286 Y100.957 E11.19362
G1 X107.194 Y100.733 E11.21695
G1 X108.147 Y100.602 E11.24094
G1 X109 Y100.564 E11.26224
G1 X109.95 Y100.608 E11.28597
G1 X110.852 Y100.742 E11.30871
G1 X111.819 Y100.994 E11.33364
G1 X112.614 Y101.283 E11.35474
G1 X113.468 Y101.682 E11.37826
G1 X114.243 Y102.149 E11.40083
G1 X115.056 Y102.763 E11.42624
G1 X115.66 Y103.316 E11.44667
G1 X116.319 Y104.037 E11.47103
G1 X116.859 Y104.767 E11.49369
G1 X117.322 Y105.536 E11.51608
G1 X117.715 Y106.381 E11.53932
G1 X118.043 Y107.286 E11.56334
G1 X118.267 Y108.194 E11.58667
G1 X118.398 Y109.142 E11.61054
G1 X118.436 Y110 E11.63196
G1 X118.392 Y110.95 E11.65569
G1 X118.258 Y111.852 E11.67843
G1 X118.006 Y112.819 E11.70336
G1 X117.717 Y113.614 E11.72446
G1 X117.318 Y114.468 E11.74797
G1 X116.851 Y115.243 E11.77055
G1 X116.237 Y116.056 E11.79596
G1 X115.684 Y116.66 E11.81639
G1 X114.963 Y117.319 E11.84075
G1 X114.236 Y117.857 E11.86331
G1 X113.464 Y118.322 E11.8858
G1 X112.615 Y118.717 E11.90915
G1 X111.714 Y119.043 E11.93306
G1 X110.806 Y119.267 E11.95639
G1 X109.853 Y119.398 E11.98038
G1 X109 Y119.436 E12.00168
G1 X108.05 Y119.392 E12.0254
G1 X107.148 Y119.258 E12.04815
G1 X106.181 Y119.006 E12.07308
G1 X105.386 Y118.717 E12.09418
G1 X104.532 Y118.318 E12.11769
G1 X103.754 Y117.849 E12.14035
G1 X102.944 Y117.237 E12.16568
G1 X102.339 Y116.683 E12.18614
G1 X101.681 Y115.963 E12.21047
G1 X101.138 Y115.229 E12.23325
G1 X100.678 Y114.464 E12.25552
G1 X100.283 Y113.615 E12.27887
G1 X99.957 Y112.714 E12.30278
G1 X99.733 Y111.806 E12.3261
G1 X99.602 Y110.853 E12.3501
G1 X99.564 Y110 E12.3714
G1 X99.608 Y109.05 E12.39512
G1 X99.742 Y108.148 E12.41787
G1 X99.994 Y107.181 E12.4428
G1 X100.285 Y106.381 E12.46403
G1 X100.682 Y105.532 E12.48741
G1 X101.149 Y104.756 E12.51001
G1 X101.763 Y103.944 E12.5354
G1 X102.316 Y103.34 E12.55583
G0 F600 X102.599 Y103.623
G1 F1200 X103.294 Y102.988 E12.57931
G1 X103.983 Y102.479 E12.60068
G1 X104.722 Y102.033 E12.62221
G1 X105.544 Y101.651 E12.64482
G1 X106.404 Y101.34 E12.66763
G1 X107.268 Y101.126 E12.68984
G1 X108.188 Y101 E12.713
G1 X108.999 Y100.964 E12.73325
G1 X109.912 Y101.006 E12.75605
G1 X110.767 Y101.133 E12.77761
G1 X111.698 Y101.375 E12.80161
G1 X112.468 Y101.655 E12.82205
G1 X113.27 Y102.031 E12.84414
G1 X114.026 Y102.486 E12.86615
G1 X114.8 Y103.071 E12.89036
G1 X115.375 Y103.597 E12.90979
G1 X116.012 Y104.294 E12.93335
G1 X116.521 Y104.983 E12.95472
G1 X116.967 Y105.722 E12.97625
G1 X117.349 Y106.544 E12.99886
G1 X117.66 Y107.404 E13.02167
G1 X117.874 Y108.268 E13.04388
G1 X118 Y109.188 E13.06704
G1 X118.036 Y109.999 E13.08729
G1 X117.994 Y110.912 E13.11009
G1 X117.867 Y111.767 E13.13165
G1 X117.625 Y112.698 E13.15565
G1 X117.345 Y113.468 E13.17609
G1 X116.969 Y114.27 E13.19818
G1 X116.514 Y115.026 E13.22019
G1 X115.929 Y115.8 E13.24439
G1 X115.403 Y116.375 E13.26383
G1 X114.706 Y117.012 E13.28739
G1 X114.017 Y117.521 E13.30876
G1 X113.278 Y117.967 E13.33029
G1 X112.456 Y118.349 E13.3529
G1 X111.596 Y118.66 E13.37571
G1 X110.732 Y118.874 E13.39791
G1 X109.812 Y119 E13.42108
G1 X109.001 Y119.036 E13.44133
G1 X108.088 Y118.994 E13.46413
G1 X107.233 Y118.867 E13.48569
G1 X106.302 Y118.625 E13.50968
G1 X105.532 Y118.345 E13.53012
G1 X104.73 Y117.969 E13.55222
G1 X103.974 Y117.514 E13.57423
G1 X103.2 Y116.929 E13.59843
G1 X102.623 Y116.401 E13.61794
G1 X101.988 Y115.706 E13.64142
G1 X101.476 Y115.014 E13.6629
G1 X101.033 Y114.278 E13.68433
G1 X100.651 Y113.456 E13.70694
G1 X100.34 Y112.596 E13.72975
G1 X100.126 Y111.732 E13.75195
G1 X100 Y110.812 E13.77512
G1 X99.964 Y110 E13.79539
G1 X100.006 Y109.088 E13.81817
G1 X100.133 Y108.233 E13.83973
G1 X100.375 Y107.302 E13.86372
G1 X100.655 Y106.532 E13.88416
G1 X101.033 Y105.726 E13.90637
G1 X101.483 Y104.977 E13.92817
G1 X102.071 Y104.2 E13.95247
G1 X102.599 Y103.623 E13.97198
G0 F600 X102.887 Y103.9
G1 F1200 X103.54 Y103.305 E13.99402
G1 X104.204 Y102.813 E14.01464
G1 X104.912 Y102.387 E14.03525
G1 X105.699 Y102.021 E14.0569
G1 X106.516 Y101.725 E14.07857
G1 X107.344 Y101.52 E14.09985
G1 X108.226 Y101.399 E14.12206
G1 X108.999 Y101.365 E14.14136
G1 X109.873 Y101.405 E14.16319
G1 X110.69 Y101.527 E14.18379
G1 X111.576 Y101.757 E14.20663
G1 X112.307 Y102.023 E14.22603
G1 X113.087 Y102.388 E14.24751
G1 X113.804 Y102.82 E14.26839
G1 X114.543 Y103.378 E14.29149
G1 X115.1 Y103.887 E14.31032
G1 X115.695 Y104.54 E14.33235
G1 X116.187 Y105.204 E14.35297
G1 X116.613 Y105.912 E14.37358
G1 X116.979 Y106.699 E14.39523
G1 X117.275 Y107.516 E14.41691
G1 X117.48 Y108.344 E14.43818
G1 X117.601 Y109.226 E14.46039
G1 X117.635 Y109.999 E14.47969
G1 X117.596 Y110.867 E14.50137
G1 X117.473 Y111.69 E14.52213
G1 X117.243 Y112.576 E14.54496
G1 X116.977 Y113.307 E14.56436
G1 X116.612 Y114.087 E14.58585
G1 X116.18 Y114.804 E14.60673
G1 X115.622 Y115.543 E14.62983
G1 X115.113 Y116.1 E14.64865
G1 X114.46 Y116.695 E14.67069
G1 X113.796 Y117.187 E14.6913
G1 X113.088 Y117.613 E14.71191
G1 X112.301 Y117.979 E14.73356
G1 X111.484 Y118.275 E14.75524
G1 X110.656 Y118.48 E14.77652
G1 X109.774 Y118.601 E14.79873
G1 X109.001 Y118.635 E14.81803
G1 X108.127 Y118.595 E14.83985
G1 X107.31 Y118.473 E14.86046
G1 X106.424 Y118.243 E14.88329
G1 X105.693 Y117.977 E14.9027
G1 X104.913 Y117.612 E14.92418
G1 X104.196 Y117.18 E14.94506
G1 X103.457 Y116.622 E14.96816
G1 X102.9 Y116.113 E14.98698
G1 X102.305 Y115.46 E15.00902
G1 X101.807 Y114.788 E15.02988
G1 X101.389 Y114.093 E15.05011
G1 X101.021 Y113.301 E15.0719
G1 X100.725 Y112.484 E15.09358
G1 X100.52 Y111.656 E15.11485
G1 X100.399 Y110.774 E15.13706
G1 X100.365 Y110 E15.15639
G1 X100.405 Y109.127 E15.17819
G1 X100.527 Y108.31 E15.19879
G1 X100.757 Y107.424 E15.22163
G1 X101.023 Y106.693 E15.24103
G1 X101.388 Y105.912 E15.26254
G1 X101.82 Y105.195 E15.28342
G1 X102.378 Y104.457 E15.3065
G1 X102.887 Y103.9 E15.32532
G1 F2100 E14.52532
G0 F600 X144.4 Y103.623
G1 F2100 E15.32532
G1 F1200 X144.4 Y101.124 E15.38766
G1 X144.57 Y100.848 E15.39574
G1 X144.6 Y100.743 E15.39847
G1 X144.6 Y100.648 E15.40084
G1 X145.255 Y100.736 E15.41732
G1 X146.184 Y100.95 E15.4411
G1 X146.46 Y101.09 E15.44882
G1 X146.585 Y101.194 E15.45288
G1 X146.772 Y101.44 E15.46059
G1 X146.863 Y101.671 E15.46678
G1 X146.9 Y101.909 E15.47279
G1 X146.899 Y102.959 E15.49898
G1 X146.763 Y103.325 E15.50872
G1 X146.601 Y103.538 E15.5154
G1 X146.218 Y103.793 E15.52687
G1 X145.257 Y104.014 E15.55147
G1 X144.6 Y104.102 E15.56801
G1 X144.6 Y104.003 E15.57048
G1 X144.57 Y103.898 E15.5732
G1 X144.4 Y103.623 E15.58127
G0 F600 X144.8 Y103.509
G1 F1200 X144.8 Y101.237 E15.63794
G1 X144.89 Y101.091 E15.64222
G1 X145.186 Y101.131 E15.64967
G1 X146.048 Y101.33 E15.67174
G1 X146.239 Y101.426 E15.67707
G1 X146.293 Y101.471 E15.67883
G1 X146.422 Y101.64 E15.68413
G1 X146.475 Y101.776 E15.68777
G1 X146.5 Y101.938 E15.69186
G1 X146.499 Y102.887 E15.71553
G1 X146.409 Y103.131 E15.72202
G1 X146.324 Y103.243 E15.72553
G1 X146.058 Y103.42 E15.7335
G1 X145.191 Y103.618 E15.75568
G1 X144.892 Y103.658 E15.76321
G1 X144.8 Y103.509 E15.76757
G0 F600 X145.2 Y103.206
G1 F1200 X145.2 Y101.544 E15.80903
G1 X145.907 Y101.707 E15.82713
G1 X146.01 Y101.759 E15.83001
G1 X146.067 Y101.834 E15.83236
G1 X146.087 Y101.886 E15.83375
G1 X146.1 Y101.967 E15.8358
G1 X146.099 Y102.816 E15.85697
G1 X146.056 Y102.933 E15.86008
G1 X146.044 Y102.948 E15.86056
G1 X145.897 Y103.046 E15.86497
G1 X145.2 Y103.206 E15.88281
G1 F2100 E15.08281
G0 F600 X145.255 Y115.986
G1 F2100 E15.88281
G1 F1200 X146.184 Y116.2 E15.90659
G1 X146.46 Y116.34 E15.91431
G1 X146.585 Y116.444 E15.91837
G1 X146.772 Y116.69 E15.92607
G1 X146.863 Y116.921 E15.93227
G1 X146.9 Y117.159 E15.93828
G1 X146.899 Y118.111 E15.96202
G1 X146.812 Y118.475 E15.97136
G1 X146.723 Y118.638 E15.97599
G1 X146.481 Y118.89 E15.98471
G1 X146.224 Y119.042 E15.99216
G1 X145.257 Y119.264 E16.01691
G1 X144.6 Y119.352 E16.03344
G1 X144.6 Y119.257 E16.03581
G1 X144.568 Y119.149 E16.03862
G1 X144.4 Y118.887 E16.04638
G1 X144.4 Y116.389 E16.1087
G1 X144.572 Y116.101 E16.11706
G1 X144.6 Y115.998 E16.11973
G1 X144.6 Y115.898 E16.12222
G1 X145.255 Y115.986 E16.13871
G0 F600 X145.186 Y116.381
G1 F1200 X146.048 Y116.58 E16.16078
G1 X146.239 Y116.676 E16.16611
G1 X146.293 Y116.721 E16.16786
G1 X146.422 Y116.89 E16.17317
G1 X146.475 Y117.026 E16.17681
G1 X146.5 Y117.188 E16.1809
G1 X146.499 Y118.064 E16.20275
G1 X146.435 Y118.331 E16.2096
G1 X146.399 Y118.398 E16.21149
G1 X146.231 Y118.573 E16.21754
G1 X146.073 Y118.666 E16.22212
G1 X145.191 Y118.868 E16.24469
G1 X144.889 Y118.909 E16.25229
G1 X144.8 Y118.769 E16.25643
G1 X144.8 Y116.499 E16.31306
G1 X144.894 Y116.342 E16.31762
G1 X145.186 Y116.381 E16.32497
G0 F600 X145.907 Y116.957
G1 F1200 X146.01 Y117.009 E16.32785
G1 X146.067 Y117.084 E16.3302
G1 X146.087 Y117.136 E16.33159
G1 X146.1 Y117.216 E16.33361
G1 X146.099 Y118.016 E16.35356
G1 X146.062 Y118.17 E16.35752
G1 X145.978 Y118.258 E16.36055
G1 X145.926 Y118.289 E16.36206
G1 X145.2 Y118.456 E16.38064
G1 X145.2 Y116.794 E16.4221
G1 X145.907 Y116.957 E16.4402
G0 F600 X145.648 Y117.892
;TYPE:SUPPORT
G1 F482.9 X145.65 Y117.376 E16.45619
G1 F2100 E15.65619
G0 F600 X145.646 Y102.115
G1 F2100 E16.45619
G1 F484.8 X145.648 Y102.641 E16.47243
G1 F2100 E15.67243
G0 F600 X117.083 Y108.414
G1 F2100 E16.47243
G1 F600 X117.2 Y109.263 E16.49381
G1 X117.231 Y109.993 E16.51204
G1 X117.196 Y110.828 E16.53288
G1 X117.079 Y111.612 E16.55266
G1 X116.86 Y112.456 E16.57441
G1 X116.607 Y113.155 E16.59295
G1 X116.259 Y113.893 E16.61331
G1 X115.846 Y114.579 E16.63328
G1 X115.317 Y115.28 E16.65519
G1 X114.826 Y115.818 E16.67336
G1 X114.204 Y116.381 E16.69428
G1 X113.572 Y116.853 E16.71396
G1 X112.894 Y117.259 E16.73367
G1 X112.146 Y117.607 E16.75425
G1 X111.332 Y117.911 E16.77593
G1 X111.32 Y117.901 E16.77632
G1 X110.578 Y118.083 E16.79538
G1 X109.733 Y118.2 E16.81666
G1 X108.999 Y118.231 E16.83498
G1 X108.164 Y118.196 E16.85583
G1 X107.381 Y118.075 E16.87559
G1 X106.54 Y117.86 E16.89725
G1 X105.845 Y117.607 E16.9157
G1 X105.103 Y117.259 E16.93614
G1 X104.417 Y116.846 E16.95611
G1 X103.717 Y116.318 E16.97799
G1 X103.174 Y115.818 E16.9964
G1 X102.607 Y115.2 E17.01732
G1 X102.143 Y114.568 E17.03688
G1 X101.737 Y113.897 E17.05644
G1 X101.389 Y113.147 E17.07707
G1 X101.088 Y112.328 E17.09883
G1 X101.095 Y112.319 E17.09912
G1 X100.909 Y111.574 E17.11827
G1 X100.796 Y110.734 E17.13942
G1 X100.765 Y110.005 E17.15762
G1 X100.804 Y109.168 E17.17852
G1 X100.921 Y108.384 E17.19829
G1 X101.14 Y107.54 E17.22004
G1 X101.394 Y106.845 E17.2385
G1 X101.737 Y106.102 E17.25891
G1 X102.15 Y105.417 E17.27887
G1 X102.679 Y104.716 E17.30077
G1 X103.17 Y104.178 E17.31894
G1 X103.792 Y103.615 E17.33987
G1 X104.428 Y103.143 E17.35963
G1 X105.102 Y102.737 E17.37926
G1 X105.853 Y102.389 E17.3999
G1 X106.667 Y102.088 E17.42155
G1 X106.676 Y102.095 E17.42184
G1 X107.418 Y101.913 E17.4409
G1 X108.263 Y101.796 E17.46217
G1 X108.995 Y101.765 E17.48045
G1 X109.832 Y101.804 E17.50135
G1 X110.615 Y101.921 E17.5211
G1 X111.456 Y102.14 E17.54278
G1 X112.155 Y102.394 E17.56133
G1 X112.893 Y102.737 E17.58163
G1 X113.579 Y103.15 E17.60161
G1 X114.28 Y103.683 E17.62357
G1 X114.818 Y104.17 E17.64168
G1 X115.381 Y104.792 E17.6626
G1 X115.853 Y105.428 E17.68236
G1 X116.255 Y106.094 E17.70177
